X: 63
T: Sonata No. 15 in C major, K 545, mvmt. 3
C: Wolfgang Amadeus Mozart
%%abc-version 2.0
%%abcx-abcm2ps-target-version 5.9.1 (29 Sep 2008)
%%abc-creator hum2abc beta
%%abcx-conversion-date 2021/01/14 17:01:33
%%abc-copyright 2018 Craig Stuart Sapp
%%abc-edited-by Craig Stuart Sapp
%%abc-edited-by Craig Stuart Sapp
%%abcx-initial-encoding-date 2009/09/24
%%gracespace 0 6 6
%%humdrum-veritas 45428365
%%humdrum-veritas-data 3308408096
%%linebreak <none>
%%barnumbers 0
L: 1/16
M: 2/4
N: Derived from sonata15-3.krn
Q: "Rondo: Allegretto" 1/4=112
%%staves {1 2}
V: 1 clef=treble
V: 2 clef=bass
K: C
[V:1] .[e2g2].[e2g2] [I:setbarnb 1]| 
[V:2] z4 | 
[V:1] .[c2e2] z2 .[d2f2].[d2f2] | 
[V:2] .[A,2C2].[A,2C2] .[F,2A,2] z2 | 
[V:1] [B2d2] z2 cdec | 
[V:2] .[G,2B,2].[G,2B,2] .[E,2G,2] z2 | 
[V:1] ABc^c defd | 
[V:2] F,6D,2 | 
[V:1] =cBAG .[e2g2].[e2g2] | 
[V:2] G,2 z2z4 | 
[V:1] .[c2e2] z2 .[f2a2].[f2a2] | 
[V:2] .[A,2C2].[A,2C2] .[D,2F,2] z2 | 
[V:1] .[B2d2] z2 agfe | 
[V:2] .[G,2B,2].[G,2B,2] .[C,2E,2] z2 | 
[V:1] ^cdef A=cBd | 
[V:2] [F,6A,6][G,2F2] | 
[V:1] .c2 z2 :|]  
[V:2] .[C2E2].C,2 :|]  
[V:1] e^fgg [I:setbarnb 9]| 
[V:2] [K:clef=treble]CGEG | 
[V:1] ag^fe .d.d.d.d | 
[V:2] B,GDG[K:clef=bass] ^F,DA,D | 
[V:1] edcB e'd'c'b | 
[V:2] G,DB,D B,,G,D,G, | 
[V:1] ^gabc' e^f=ga | 
[V:2] C,A,E,A, ^C,A,E,A, | 
[V:1] g^fed .[b2d'2].[b2d'2] | 
[V:2] D,2 z2z4[K:clef=treble] | 
[V:1] .[g2b2] z2 .[a2c'2].[a2c'2] | 
[V:2] .[E2G2].[E2G2] .[C2E2] z2 | 
[V:1] .[^f2a2] z2 gabg | 
[V:2] .[D2^F2].[D2F2] .[B,2D2] z2[K:clef=bass] | 
[V:1] ^dege =dBcA | 
[V:2] G,6^F,2 & C,4D,4 | 
[V:1] G2 z2 GABc | 
[V:2] .G,2.G,,2z4 | 
[V:1] .d2 z2 Bcde | 
[V:2] .[G,2B,2].G,,2z4 | 
[V:1] .=f2 z2 defg | 
[V:2] .[G,2B,2].G,,2z4 | 
[V:1] a2._a2.g2.^f2 | 
[V:2] z8 | 
[V:1] .=f2 z2 .[e2g2].[e2g2] | 
[V:2] z8 | 
[V:1] .[c2e2] z2 .[d2f2].[d2f2] | 
[V:2] .[A,2C2].[A,2C2] .[F,2A,2] z2 | 
[V:1] .[B2d2] z2 cdec | 
[V:2] .[G,2B,2].[G,2B,2] .[E,2G,2] z2 | 
[V:1] ABc^c defd | 
[V:2] F,6D,2 | 
[V:1] =cBAG .[e2g2].[e2g2] | 
[V:2] G,2 z2z4 | 
[V:1] .[c2e2] z2 .[f2a2].[f2a2] | 
[V:2] .[A,2C2].[A,2C2] .[D,2F,2] z2 | 
[V:1] .[B2d2] z2 agfe | 
[V:2] .[G,2B,2].[G,2B,2] .[C,2E,2] z2 | 
[V:1] ^cdef A=cBd | 
[V:2] [F,6A,6][G,2F2] | 
[V:1] .c2 z2z4 | 
[V:2] .[C2E2].C,2 .[C2E2].[C2E2] | 
[V:1] e^dfez4 | 
[V:2] .[A,2C2] z2 .[B,2D2].[B,2D2] | 
[V:1] e^dfe .[e2c'2].[e2c'2] | 
[V:2] .[^G,2B,2] z2z4 | 
[V:1] .[c2a2] z2 .[=d2b2].[d2b2] | 
[V:2] E^DFEz4 | 
[V:1] .[B2^g2] z2 aecA | 
[V:2] E^DFE[K:clef=treble][C4E4] | 
[V:1] c_B.B.B d^c.c.c | 
[V:2] [D4F4][E4G4] | 
[V:1] edfe gffe | 
[V:2] A8 & F2^C2 D2E2 | 
[V:1] e^d!sfz!c'4d2 | 
[V:2] [F2A2] z2 [F2A2] z2[K:clef=bass] | 
[V:1] e2 z2 b^ge=d | 
[V:2] E,E^G,E B,EG,E | 
[V:1] cea^g aecA | 
[V:2] E,EA,E CEA,E | 
[V:1] ^GBe^g bged | 
[V:2] E,E^G,E B,EG,E | 
[V:1] cea^g aecA | 
[V:2] E,EA,E CEA,E | 
[V:1] E2 z2 .[c2e2].[c2e2] | 
[V:2] E,2 z2z4 | 
[V:1] .[A2c2] z2 .[B2d2].[B2d2] | 
[V:2] E^DFEz4 | 
[V:1] .[^G2B2] z2z4 | 
[V:2] E^DFE .[E,2C2].[E,2C2] | 
[V:1] E^DFEz4 | 
[V:2] .[C,2A,2] z2 .[D,2B,2].[D,2B,2] | 
[V:1] e'^d'f'e' =d'^c'e'd' | 
[V:2] .[B,,2^G,2] z2[G,4B,4] | 
[V:1] d'=c'c'b baag | 
[V:2] x4[K:clef=treble]E4 & [A,2C2][B,2D2] C2^C2 | 
[V:1] gffe eddc | 
[V:2] A8 & D2E2F2E2 | 
[V:1] _BfdB A2^G2 | 
[V:2] [D4F4][K:clef=bass]C2=B,2 & x4E,4 | 
[V:1] A2 z2 ^GdBG | 
[V:2] A,CEC E,B,DB, | 
[V:1] A2 z2 ^GdBG | 
[V:2] A,CEC E,B,DB, | 
[V:1] A2 z2 ^GdBG | 
[V:2] A,CEC E,B,DB, | 
[V:1] AecA BfdB | 
[V:2] A,CEC =G,DFD | 
[V:1] !fermata!z4.[e2g2].[e2g2] | 
[V:2] !fermata!z4z4 | 
[V:1] .[c2e2] z2 .[d2f2].[d2f2] | 
[V:2] .[A,2C2].[A,2C2] .[F,2A,2] z2 | 
[V:1] .[B2d2] z2 cdec | 
[V:2] .[G,2B,2].[G,2B,2] .[E,2G,2] z2 | 
[V:1] ABc^c defd | 
[V:2] F,6D,2 | 
[V:1] =cBAG .[e2g2].[e2g2] | 
[V:2] G,2 z2z4 | 
[V:1] .[c2e2] z2 .[f2a2].[f2a2] | 
[V:2] .[A,2C2].[A,2C2] .[D,2F,2] z2 | 
[V:1] .[B2d2] z2 agfe | 
[V:2] .[G,2B,2].[G,2B,2] .[C,2E,2] z2 | 
[V:1] ^cdef A=cBd | 
[V:2] [F,6A,6][G,2F2] | 
[V:1] .c2 z2 BfdB | 
[V:2] .[C2E2].C,2 F,B,G,B, | 
[V:1] agfe dfdB | 
[V:2] E,CG,C F,B,G,B, | 
[V:1] agfe d'c'ba | 
[V:2] E,CG,C F,DA,D | 
[V:1] ag.f.e ed.c.B | 
[V:2] G,ECE G,FDF[K:clef=treble] | 
[V:1] d2c2 BfdB | 
[V:2] CGEG[K:clef=bass] F,B,G,B, | 
[V:1] agfe dfdB | 
[V:2] E,CG,C F,B,G,B, | 
[V:1] agfe d'c'ba | 
[V:2] E,CG,C F,DA,D | 
[V:1] ag.f.e ed.c.B | 
[V:2] G,ECE G,FDF | 
[V:1] ceGc EGCE | 
[V:2] CEG,C E,G,C,E, | 
[V:1] Gc.[ce].[eg] [eg][df].[ce].[Bd] | 
[V:2] G,2 z2 G,,2 z2 | 
[V:1] ceGc EGCE | 
[V:2] CEG,C E,G,C,E, | 
[V:1] Gc.[ce].[eg] [eg][df].[ce].[Bd] | 
[V:2] G,2 z2 G,,2 z2 | 
[V:1] .c2.[e2g2c'2] .[E2c2].[E2c2] | 
[V:2] .[C,,2C,2].[E,,2E,2].[G,,2G,2].[E,,2E,2] | 
[V:1] [E4c4]z4 |]  
[V:2] [C,,4C,4]z4 |]  


